app/dist/common/images/kempharm.svg

<svg height="18" viewBox="0 0 18 18" width="18" xmlns="http://www.w3.org/2000/svg"><path d="m0 0h18v18h-18z" fill="#f0f3fa"/><path d="m3 13h4.5l-1.2-4.02 2.3-3.98h-3.96z" fill="#130e84"/><path d="m13 6.48c0 2.38-2.6 4.37-4.66 4.8l.56 1.72h3.6l2.5-4-.97-4h-2.33c.64.1 1.3.7 1.3 1.48zm-2.88-1.48c.8.08 1.58.5 1.58 1.57 0 2.04-1.98 3.72-3.46 4.4l-.64-1.97z" fill="#eb720a"/></svg>

<!-- by TradingView --><svg xmlns="http://www.w3.org/2000/svg" width="18" height="18" viewBox="0 0 18 18"><path fill="#F0F3FA" d="M0 0h18v18H0z"/><path d="M3 13h4.5L6.3 8.98 8.6 5H4.64L3 13Z" fill="#130E84"/><path d="M13 6.48c0 2.38-2.6 4.37-4.66 4.8L8.9 13h3.6L15 9l-.97-4H11.7c.64.1 1.3.7 1.3 1.48ZM10.12 5c.8.08 1.58.5 1.58 1.57 0 2.04-1.98 3.72-3.46 4.4L7.6 9l2.52-4Z" fill="#EB720A"/></svg>
